X: 1
T: Nifty's Eigene   [Dm]
C:
S: PDF for WC Klezmer Jam 2013-11-24
Z: 2013 John Chambers <jc:trillian.mit.edu>
N: Parts D and C2 were actually up an octave.
M: C
L: 1/8
P: Play ABCDC
K: Dm
"A"|:\
"Dm"fa ^ga f3 a | "(A)"a/^g/g/f/ f/e/e/d/ "Dm"ga- aa |\
"Dm"^g>f fa g>f fa | "A"a/^g/g/f/ f/e/e/d/ [1 "Dm"e/f/ d2 d :|[2 "Dm"d3 c- ||
"B"|:\
"F"c2 f2 ga gf | "Gm"^f<g g2 g2 a/^g/g/=f/ |\
"A"ef ^ga "Dm"f3 a | "A"a/^g/g/f/ f/e/e/d/ [1 "Dm"g a3 :|[2 "Dm"d4 ||
"C"[|\
"Dm"D2 F2 A2 B/A/A/G/ | "Gm"GA Bd G3 F |\
"Dm"FG/_A/ GF F/_E/D/F/ "Cm"E/D/C/E/ | "Dm"D2 F2 A2 d2 |
"Dm"z D2 F A2 B/A/A/G/ | "Gm"GA Bd G3 F |\
"Dm"FG/_A/ GF F/_E/D/F/ "Cm"E/D/C/E/ | "Dm"D8 |]
P: Play D and C an octave higher if you like.
"D"[|\
"Cm"c2 d_e "Gm"d3 c | "Cm"(3_edc "C7"(3BAG "F"F3 C |\
"F"(3FCF AFA c2 f2 | "C7"(3_edc (3BAG "F"F4 |
"Cm"c2 d_e "Gm"d3 c | "Cm"(3_edc "C7"(3BAG "F"F2 A/^G/G/F/ |\
"A"EF ^GA "Gm"=G3 A- | "A"A/^G/G/F/ F/E/E/D/ "Dm"D3 A, |]
P: Play C again.
%"C2"[|\
%D2 F2 A2 B/A/A/G/ | GA Bd G3 F |\
%FG/_A/ GF F/_E/D/F/ E/D/C/E/ | D2 F2 A2 d2 |
%z D2 F A2 B/A/A/G/ | GA Bd G3 F |\
%FG/_A/ GF F/_E/D/F/ E/D/C/E/ | D8 |]

%%sep 1 1 500
%%sep 1 1 500
